X:1
T:7.  Now Let Us Praise Christ Our Lord
T:Hugo Distler
T:Coelius Sedulis (ca. 450) Tr. Martin Luther (1524)
T:7.  Now Let Us Praise Christ Our Lord Christum wir sollen loben schon Advent
T:Bärenreiter
T:Bärenreiter
C:Hugo Distler
Z:Coelius Sedulis (ca. 450)
Z:Tr. Martin Luther (1524)
Z:Bärenreiter
%%score [ 1 ( 2 3 ) ( 4 5 ) ]
L:1/8
Q:1/4=72
M:4/4
K:C
V:1 treble nm="Sop."
V:2 treble nm="Alto"
V:3 treble 
V:4 bass nm="Bar."
V:5 bass 
V:1
 D4 D2 F2 |[M:6/4] (G2 A3 G F2 D2) C2 | (E3 F G2 F4) E2 | !breath!E4 G2 (A2 c2) c2 | %4
w: 1.  Now let us|all _ _ _ _ praise|Christ, _ _ _ our|Lord, pure Ma- * ry's|
w: 2.  The blest Cre-|a- * * * * tor|of _ _ _ all|things put on _ a|
w: 3.  The choirs of|heav'n _ _ _ _ re-|joice _ _ _ there-|for, the an- * gels|
w: 4.  To You be|hon- * * * * or,|thanks, _ _ _ and|praise, Christ Je- * sus,|
[M:4/4] (c2 B4) (AG) | (A2 c4) d2 |[M:3/2] !breath!c2 G2 A4 B4 |[M:4/4] (c3 d cB) (AG) | %8
w: Son _ by _|God's _ own|word, far as the|sun _ _ _ shall _|
w: serv- * ant's _|bod- * y,|mean, that He man-|kind _ _ _ as _|
w: sing _ His _|praise _ in|choir. To poor- est|shep- * * * herds _|
w: born _ of _|bles- * sed|maid, with Fa- ther,|Ho- * * * ly _|
 (A2 c3 A2) G |[M:6/4] (EG"^()" !breath!A2) D2 E2 E2 A2 |[M:4/4] (A4 c2 d2- | dedc A2) (G2- | %12
w: send _ _ its|light, _ _ through- out all the|Earth, _ _|_ _ _ _ _ depth|
w: man _ _ might|serve _ _ and cre- a- tion|not _ _|_ _ _ _ _ be|
w: they _ _ pro-|claim'd _ _ the Shep- herd who|the _ _|_ _ _ _ _ world|
w: Spir- * * it,|praise _ _ from now un- to|the _ _|_ _ _ _ _ end|
[M:6/4] GF E3 F G2) F4 | E12 |] %14
w: _ _ _ _ _ and|height.|
w: _ _ _ _ _ de-|stroyed.|
w: _ _ _ _ _ has|made.|
w: _ _ _ _ _ of|days.|
V:2
 A,4 A,2 C2 |[M:6/4] DE (F2 E3 D C2 A,2- | A,A,B,C D4 C2) B,2 | !breath!C4 E2 F4 E2 | %4
w: 1.  Now let us|all praise Christ, _ _ _ _|_ _ _ _ _ _ our|Lord, pure Ma- ry's|
w: 2.  The blest Cre-|a- tor of _ _ _ _|_ _ _ _ _ _ all|things put on a|
w: 3.  The choirs of|heav'n re- joice _ _ _ _|_ _ _ _ _ _ there-|for, the an- gels|
w: 4.  To You be|hon- or, thanks, _ _ _ _|_ _ _ _ _ _ and|praise, Christ Je- sus,|
[M:4/4] (A3 B AG E2- | E)E F2 G4 |[M:3/2] [CG]4 z2 D2 E4- |[M:4/4] E2 F2 G2 F2 | (E3 D) C2 (D2- | %9
w: Son _ _ _ _|_ by God's own|word, far as|_ the sun shall|send _ its light,|
w: serv- * * * *|* ant's bod- y,|mean, that He|_ man- kind as|man _ might serve|
w: sing _ _ _ _|_ His praise in|choir. To poor-|* est shep- herds|they _ pro- claim'd|
w: born _ _ _ _|_ of bles- sed|maid, with Fa-|* ther, Ho- ly|Spir- * it, praise|
[M:6/4] DE"^()" !breath!^F4) E3 D C2 |[M:4/4] B,2 E2 (E3 D | EF G3 F E2- |[M:6/4] E2 E2 D2 C2) D4 | %13
w: _ _ _ through- out all|the Earth, depth _|_ _ _ _ _|* * * * and|
w: _ _ _ and cre- a-|tion not be _|_ _ _ _ _|* * * * de-|
w: _ _ _ the Shep- herd|who the world _|_ _ _ _ _|* * * * has|
w: _ _ _ from now un-|to the end _|_ _ _ _ _|* * * * of|
"^(""^)" ^C12 |] %14
w: height.|
w: stroyed.|
w: made.|
w: days.|
V:3
 x8 |[M:6/4] x12 | x12 | x12 |[M:4/4] x8 | x8 |[M:3/2] x12 |[M:4/4] x8 | x8 |[M:6/4] x12 | %10
[M:4/4] x8 | x8 |[M:6/4] x12 | A,12 |] %14
V:4
 G,4 F,2 (F,2- |[M:6/4] F,E,) (D,4 C,2 D,2) E,2 | (A,8 G,2) A,2 | A,4 z8 |[M:4/4] z8 | z8 | %6
w: 1.  Now let us|_ _ all _ _ praise|Christ, _ our|Lord,|||
w: 2.  The blest Cre-|* * a- * * tor|of _ all|things|||
w: 3.  The choirs of|_ _ heav'n _ _ re-|joice _ there-|for,|||
w: 4.  To You be|_ _ hon- * * or,|thanks, _ and|praise,|||
[M:3/2] z8 z2 E,2 |[M:4/4] A,3 G, A,B, (C2- | CB, A,4) D2 |[M:6/4]"^()" D6 z4 z2 |[M:4/4] z8 | %11
w: far|as the sun shall send|_ _ _ its|light,||
w: that|He man- kind as man|_ _ _ might|serve||
w: To|poor- est shep- herds they|_ _ _ pro-|claim'd||
w: with|Fa- ther, Ho- ly Spir-|* * * it,|praise||
 z4 C2 B,2 |[M:6/4] A,2 G,2 F,2 E,4 D,2 |"^(""^)" A,,12 |] %14
w: through- out|all the Earth, depth and|height.|
w: and cre-|a- tion not be de-|stroyed.|
w: the Shep-|herd who the world has|made.|
w: from now|un- to the end of|days.|
V:5
 x8 |[M:6/4] x12 | x12 | x12 |[M:4/4] x8 | x8 |[M:3/2] x12 |[M:4/4] x8 | x8 |[M:6/4] x12 | %10
[M:4/4] x8 | x8 |[M:6/4] x12 | A,12 |] %14

